!!!COM: Hugo Wolf
!!!CNT: Deutscher
!!!TXO: Deutsche 
!!!OTL: Nachtzauber
!!!ODT: 1887/05/24
!!!ONM: No. 8
!!!LYR: Joseph von Eichendorff
!!!ENC: Brian Bice
!!!YOR: 45 Songs on Poems of Goethe and Eichendorff, Dover Publications, 1995
!!NB: Vocal melody and text only encoded.
**kern	**silbe
*clefG2	*
*k[f#c#g#d#a#e#]	*
*M3/4	*
=6	=6
{8.c#	{Ho2rst
16f#	du
8f#	nicht
8f#	die
8a#	Quel-
8a#	-len
=7	=7
4b#	ge-
8cc#}	-hen}
8r	.
{8a#	{zwi-
8cc#	-schen
=8	=8
4.ddn	Stein
8ddn	und
8cc#	Blu-
8b#	-men
=9	=9
(2dd#	weit
8cc#)}	|}
8r	.
=10	=10
{8f#	{nach
8f#	den
8f#	stil-
8f#	-len
8f#	Wal-
8f#	-des-
=11	=11
([4fn	-se-
8.fn]	|
16g-)	|
8f}	-en,}
8r	.
=12	=12
{8en	{wo
8en	die
8b	Mar-
8b	-mor-
(12b	-bil-
12a#)	|
12g#	-der
=13	=13
2a#	ste-
8a#}	-hen}
8r	.
=14	=14
{8b	{in
8b	der
[2dd#	scho2-
=15	=15
8dd#]	.
8cc#	-nen
4.b	Ein-
8cc#	-sam-
=16	=16
[2.cc#	-keit?
=17	=17
4cc#]}	|}
4r	.
4r	.
=18	=18
8r	.
{4b	{Von
8b	den
8b	Ber-
8b	-gen
=19	=19
8.b	sacht
16cc#	her-
(8cc#	-nie-
4b)	|
8ddn}	-der,}
=20	=20
8r	.
{4cc#	{wek-
8dn	-kend
8cc#	die
8dd#	ur-
=21	=21
8.cc#	-al-
16ee	-ten
(8ee	Lie
4dd#)	|
8ee#}	-der,}
=22	=22
8r	.
{[8ff#	{steigt
4ff#]	|
4cc#	die
=23	=23
4.a	wun-
8a	-der-
8.g#	-ba-
16g#	-re
=24	=24
[4f#	Nacht,
8f#]}	|}
8r	.
{8f#	{und
8f#	die
=25	=25
4.ddn	Gru2n-
8ddn	-de
8.cc#	gla2n-
16b	-zen
=26	=26
4a#	wie-
8cc#}	-der,}
8r	.
{8f#	{wie
8f#	du's
=27	=27
8dd#	oft
8ee-	im
4.ffn	Traum
8ee-	ge-
=28	=28
(4ddn	-dacht,
8dd-)}	|}
8r	.
{8ccn	{wie
8bn	du's
=29	=29
8a#	oft
8c#	im
4.dn	Traum
8e#	ge-
=30	=30
2f#}	-dacht.}
4r	.
=35	=35
{8.c#	{Kennst
16f#	die
8f#	Blu-
8f#	-me
8a	du,
16r	.
16a	ent-
=36	=36
4b#	-spros-
8cc#	-sen
8r	.
8a#	in
8cc#	dem
=37	=37
4.ddn	mond-
8ddn	-be-
8.cc#	-gla2nz-
16b#	-ten
=38	=38
(2dd#	Grund?
8cc#)}	|}
8r	.
=39	=39
4r	.
{8f#	{Aus
8f#	der
8.f#	Knos-
16f#	-pe,
=40	=40
4r	.
8.fn	halb
16g-	er-
8g-	-schloss-
8fn}	-en,}
=41	=41
4r	.
{8.en	{jun-
16en	-ge
8b	Glie-
8b	-der
=42	=42
(12b	blu2-
12a#)	|
12g#	-hend
4a#	spros-
8a#}	-sen,}
8r	.
=43	=43
{8.b	{wei-
16b	-sse
[2ddn	Ar-
=44	=44
8ddn]	|
8ddn	-me,
4.cc#	ro-
8b	-ter
=45	=45
(2.ee#	Mund,
=46	=46
2ff#)}	|}
4r	.
=47	=47
8r	.
{4b	{und
8b	die
8.b	Nach-
16b	-ti-
=48	=48
8b	-gal-
8cc#	-len
(8cc#	schla-
4b)	|
8ddn	-gen
=49	=49
8r	.
4cc#	und
8ddn	rings
8cc#	hebt
8dd#	es
=50	=50
8.cc#	an
16een	zu
(8een	kla-
4dd#)	|
8ee#}	-gen,}
=51	=51
8r	.
{[8f#	{ach,
8.f#]	|
16r	.
4cc#	vor
=52	=52
8.a#	Lie-
16a#	-be
4.g#	to-
8g#	-des-
=53	=53
[4f#	-wund,
8f#]}	|}
8r	.
{8f#	{von
8f#	ver-
=54	=54
4.ddn	-sunk'-
8ddn	-nen
8.cc#	scho2-
16b	-nen
=55	=55
4a#	Ta-
4cc#}	-gen}
4r	.
=56	=56
4r	.
4r	.
{([4ee#	{komm,
=57	=57
2ee#]	|
8dd#)	|
8ff#	o
=58	=58
8ff#	komm
8c#	zum
4.dn	stil-
8e#	-len
=59	=59
[2f#	Grund!
8f#]}	|}
8r	.
=60	=60
4r	.
{(2ddn	{komm!
=61	=61
[4cc#	|
8cc#])}	|}
8r	.
4r	.
=62	=62
4r	.
{(2b	{komm!
=63	=63
[2.a#)	|
=64	=64
2.a#_	|
=65	=65
8a#]}	|}
8r	.
4r	.
4r	.
*-	*-
